Sources/FrostedUI/Resources/Icons.xcassets/rotateCard32.imageset/rotate-card-32.svg

<svg width="32" height="32" viewBox="0 0 32 32" fill="none" xmlns="http://www.w3.org/2000/svg" data-fui-icon="true">
  <path
    d="M10.5 7.67361C10.5002 4.01709 13.8686 1.28954 17.4453 2.04959L27.4453 4.17459C30.1009 4.73897 31.9999 7.08378 32 9.79861V22.201C31.9998 24.9158 30.1008 27.2606 27.4453 27.825L17.4453 29.95C13.8686 30.71 10.5003 27.9824 10.5 24.326V19.9998C10.5 19.5856 10.8358 19.2498 11.25 19.2498C11.6642 19.2498 12 19.5856 12 19.9998V24.326C12.0003 27.0285 14.4902 29.0449 17.1338 28.4832L27.1338 26.3582C29.0964 25.941 30.4998 24.2074 30.5 22.201V9.79861C30.4999 7.7921 29.0964 6.05861 27.1338 5.64139L17.1338 3.51639C14.4902 2.95462 12.0002 4.97101 12 7.67361V12.2498C11.9999 12.664 11.6642 12.9998 11.25 12.9998C10.8358 12.9998 10.5001 12.664 10.5 12.2498V7.67361ZM18.4697 10.9695C18.7626 10.6766 19.2374 10.6766 19.5303 10.9695L24.0303 15.4695C24.3231 15.7624 24.3231 16.2372 24.0303 16.5301L19.5303 21.0301C19.2374 21.3228 18.7626 21.3228 18.4697 21.0301C18.1769 20.7372 18.1769 20.2624 18.4697 19.9695L21.6895 16.7498H7.25C6.67469 16.7498 6.31087 16.937 6.09277 17.1551C5.86768 17.3802 5.75 17.6853 5.75 17.9998C5.75004 18.3141 5.86773 18.6193 6.09277 18.8445C6.31092 19.0627 6.67487 19.2508 7.25 19.2508C7.66421 19.2508 8 19.5865 8 20.0008C7.99964 20.4147 7.66399 20.7508 7.25 20.7508C6.32525 20.7508 5.56409 20.437 5.03223 19.9051C4.50751 19.3802 4.25004 18.6852 4.25 17.9998C4.25 17.3143 4.50744 16.6193 5.03223 16.0945C5.56413 15.5626 6.32531 15.2498 7.25 15.2498H21.6895L18.4697 12.0301C18.1769 11.7372 18.1769 11.2624 18.4697 10.9695Z"
    fill="currentColor"
  />
</svg>

<svg xmlns="http://www.w3.org/2000/svg" width="32" height="32" fill="none" data-fui-icon="true" viewBox="0 0 32 32"><path fill="currentColor" d="M10.5 7.674c0-3.657 3.369-6.384 6.945-5.624l10 2.125A5.75 5.75 0 0 1 32 9.799V22.2a5.75 5.75 0 0 1-4.555 5.624l-10 2.125c-3.576.76-6.945-1.968-6.945-5.624V20a.75.75 0 0 1 1.5 0v4.326a4.25 4.25 0 0 0 5.134 4.157l10-2.125a4.25 4.25 0 0 0 3.366-4.157V9.799a4.25 4.25 0 0 0-3.366-4.158l-10-2.125A4.25 4.25 0 0 0 12 7.674v4.576a.75.75 0 0 1-1.5 0zm7.97 3.295a.75.75 0 0 1 1.06 0l4.5 4.5a.75.75 0 0 1 0 1.061l-4.5 4.5a.75.75 0 0 1-1.06-1.06l3.22-3.22H7.25c-.575 0-.94.187-1.157.405A1.2 1.2 0 0 0 5.75 18c0 .314.118.62.343.845.218.218.582.406 1.157.406a.75.75 0 1 1 0 1.5c-.925 0-1.686-.314-2.218-.846A2.7 2.7 0 0 1 4.25 18c0-.686.257-1.38.782-1.905.532-.532 1.293-.845 2.218-.845h14.44l-3.22-3.22a.75.75 0 0 1 0-1.06"/></svg>
